remix/Media/camera-lens-fill.svg

<svg viewBox="0 0 24 24" fill="currentColor" xmlns="http://www.w3.org/2000/svg"><path d="M9.82726 21.7633L14.3094 14L17.8413 20.1175C16.198 21.3021 14.1805 22 12 22C11.2538 22 10.5268 21.9183 9.82726 21.7633ZM7.88985 21.119C5.3115 19.955 3.31516 17.7297 2.4578 15H11.4226L7.88985 21.119ZM2.04938 13C2.01672 12.6711 2 12.3375 2 12C2 9.39284 2.99773 7.0187 4.6322 5.23859L9.11325 13H2.04938ZM6.15866 3.88251C7.80198 2.6979 9.81949 2 12 2C12.7462 2 13.4732 2.08172 14.1727 2.2367L9.6906 10L6.15866 3.88251ZM16.1101 2.88101C18.6885 4.04495 20.6848 6.27028 21.5422 9H12.5774L16.1101 2.88101ZM21.9506 11C21.9833 11.3289 22 11.6625 22 12C22 14.6072 21.0023 16.9813 19.3678 18.7614L14.8868 11H21.9506Z"/></svg>

<svg viewBox="0 0 24 24" xmlns="http://www.w3.org/2000/svg"><path fill="none" d="M0 0h24v24H0Z"/><path d="M9.827 21.76l4.48-7.77 3.53 6.11v0c-1.71 1.22-3.75 1.88-5.85 1.88 -.75 0-1.48-.09-2.173-.24Zm-1.94-.65v0c-2.6-1.18-4.58-3.41-5.432-6.12h8.96L7.87 21.1Zm-5.84-8.12H2.04c-.29-2.84.65-5.67 2.58-7.77l4.47 7.76h-7.07ZM6.15 3.87V3.86c1.7-1.23 3.74-1.89 5.84-1.89 .74 0 1.47.08 2.173.23l-4.49 7.76 -3.54-6.12Zm9.95-1.01V2.85c2.59 1.17 4.57 3.4 5.43 6.12h-8.97l3.53-6.12Zm5.84 8.12h-.001c.28 2.83-.66 5.66-2.59 7.76l-4.48-7.77h7.06Z"/></svg>
